X:1
T:Title
%%score ( 1 2 ) ( 3 4 )
L:1/8
Q:1/4=110
M:4/4
K:D
V:1 treble nm="Violin, SOPRANO ALTO"
V:2 treble 
V:3 bass nm="Violin, TENOR BASS"
V:4 bass 
V:1
 z4 z2 DF | [FA]2 [FA]2 [FA]2 [DF][FA] | [Fd]2 [Fd]2 [Fd]2 [GB]2 | z4 .F2 z2 | [CE]6 DF | %5
 [FA]2 [FA]2 [FA]2 [DF][FA] | [Fd]2 [Fd]2 [Fd]2 [GB]2 | [FA]2 [DF]2 [DF]2 [CE]2 | D6 [FA]2 | %9
 [Gc]6 BA | [Fd]6 [FA]2 | [GB]2 [FA]2 D-[DE] D2 | [CE]6 [FA]2 | [Gc]6 BA | [Fd]6 [FA][GB] | %15
 [FA]2 [DF]2 [DF]2 [CE]2 | D6 z2 |] %17
V:2
 x8 | x8 | x8 | [FA]2 [DF]2 D-[DE] D2 | x8 | x8 | x8 | x8 | x8 | z4 z2 G2 | x8 | z4 .F2 z2 | x8 | %13
 z4 z2 G2 | x8 | x8 | x8 |] %17
V:3
 z4 z2 F,A, | [D,D]2 [D,D]2 [D,D]2 [D,A,]2 | [D,A,]2 [D,A,]2 [D,A,]2 [D,D]2 | %3
w: 1.~Sal *|va tion's~ free,~ glad~|joy~ to~ all~ Of~|
 [D,D]2 [D,A,]2 A,G, [D,F,]2 | [A,,A,]6 F,A, | [D,D]2 [D,D]2 [D,D]2 [D,A,]2 | %6
w: Ad am's~ fall * en~|race;~ We'll~ *|tell~ to~ all~ both~|
 [D,A,]2 [D,A,]2 [D,A,]2 [G,,D]2 | [A,,D]2 [A,,A,]2 [A,,A,]2 [A,,G,]2 | [D,F,]6 [D,A,]2 | %9
w: far~ and~ near~ Of~|sav ing,~ keep ing~|grace.~ *|
 [A,,A,]2 [A,,A,]2 [A,,A,]2 [C,A,]2 | [D,A,]2 [D,A,]2 [D,A,]2 [D,D]2 | [D,D]2 [D,D]2 A,G, [D,F,]2 | %12
w: |||
 [A,,A,]6 [D,A,]2 | [A,,A,]2 [A,,A,]2 [A,,A,]2 [C,A,]2 | [D,A,]2 [D,A,]2 [D,A,]2 [D,D][G,,D] | %15
w: |||
 [A,,D]2 [A,,A,]2 [A,,A,]2 [A,,G,]2 | [D,F,]6 z2 |] %17
w: ||
V:4
 z4 z2 D,2 | x8 | x8 | z4 D,2 z2 | z4 z2 D,2 | x8 | x8 | x8 | x8 | x8 | x8 | z4 D,2 z2 | x8 | x8 | %14
 x8 | x8 | x8 |] %17

